!!!SOCIAL_FUNCTION:	songs used in the treatment of the sick
!!!PDT:	1929
!!!OTL: No_71_The_Sunrise.krn
!!!REG: Southwest
!!!LANG: Non-Tone
!!!LING_GROUP: Uto-Aztecan
**kern
*staff1
=1-
*clefF4
*k[f#]
*M2/4
2B\
=2
8B\L
8G\J
4G\
=3
4B\
8B\L
8G\J
=4
4G\
8G\
8r
=5
4G\
4B\
=6
4B\
4G\
=7
(4F#\
4E\)
=8
4BB/
8.GG/L
16BB/Jk
=9
2BB/
=10
8BB/L
8BB/J
4BB/
=11
4.BB/
8BB/
=12
2BB/
=13
4D\
4D\
=14
8.D/L
16BB/Jk
8BB/L
8GG/J
=15
2BB/
=16||
*M3/4
4BB/
4BB/
4GG/
=17
4BB/
4BB/
4BB/
=18||
*M2/4
4BB/
4GG/
=19||
*M3/4
4BB/
4BB/
4BB/
=20
4BB/
2BB/
==
*-
